X:144
T:Miss Thompson's
R:hornpipe
C:Errington Thompson, Northumberland, England
D:Sharon Shannon
D:Battlefield Band: Home Is Where the Van Is
O:England
Z:id:hn-hornpipe-144
M:C|
L:1/8
K:D
(3ABc | d2df edcB | A2AB AGFE | DFAF DGBG | DFAF GFED |
d2df edcB | A2AB AGFE | DFAd fedc | d2dc d2 :|
|: cd | ecec Acec | fdfd Adfd | gege fdfd | edcB A2A2 |
B2BG DGBG | AFAF DFAG | FAde fedc | d2dc d2 :|

